X:562
T:Miss MacPherson Grant of Ballndalloch
R:Strathspey
B:The Athole Collection
M:C
L:1/8
K:F
a|c<c c>B A<c ~f2|d<d d>c d>fg>a|f>FA>F A<c ~f2|d>g f/e/d/c/ ~f2 f:|
|:g|a>f a/g/f/e/ f>c ~f2|b>g b/a/g/f/ e/f/g/a/ gf/g/|1 a>f a/g/f/e/ f>c d<f|
~c>f e/f/g/e/ ~f2f:|2 b/a/g/f/ g>e f>c d<f|~c>f e/f/g/e/ ~f2f||

